dist/icons/svgs/chevron-circle-up-outline.svg

<svg xmlns="http://www.w3.org/2000/svg" width="24" height="24" fill="currentcolor" class="icon-chevron-circle-up-outline" viewBox="0 0 24 24">
  <path d="M12 3.875C9.07031 3.875 6.41406 5.4375 4.92969 7.9375C3.48438 10.4766 3.48438 13.5625 4.92969 16.0625C6.41406 18.6016 9.07031 20.125 12 20.125C14.8906 20.125 17.5469 18.6016 19.0312 16.0625C20.4766 13.5625 20.4766 10.4766 19.0312 7.9375C17.5469 5.4375 14.8906 3.875 12 3.875ZM12 22C8.40625 22 5.125 20.125 3.32812 17C1.53125 13.9141 1.53125 10.125 3.32812 7C5.125 3.91406 8.40625 2 12 2C15.5547 2 18.8359 3.91406 20.6328 7C22.4297 10.125 22.4297 13.9141 20.6328 17C18.8359 20.125 15.5547 22 12 22ZM16.7266 12.5859H16.6875C17.0781 12.9766 17.0781 13.5625 16.6875 13.9141C16.3359 14.3047 15.75 14.3047 15.3594 13.9141L11.9609 10.5156L8.5625 13.9141C8.21094 14.3047 7.625 14.3047 7.27344 13.9141C6.88281 13.5625 6.88281 12.9766 7.27344 12.5859L11.3359 8.52344C11.6875 8.17188 12.2734 8.17188 12.6641 8.52344L16.7266 12.5859Z"/>
</svg>

<svg xmlns="http://www.w3.org/2000/svg" width="24" height="24" fill="currentColor" class="icon-chevron-circle-up-outline" viewBox="0 0 24 24">
  <path d="M12 3.875c-2.93 0-5.586 1.563-7.07 4.063-1.446 2.539-1.446 5.625 0 8.125A8.13 8.13 0 0 0 12 20.125c2.89 0 5.547-1.523 7.031-4.062 1.446-2.5 1.446-5.586 0-8.125-1.484-2.5-4.14-4.063-7.031-4.063M12 22c-3.594 0-6.875-1.875-8.672-5-1.797-3.086-1.797-6.875 0-10C5.125 3.914 8.406 2 12 2c3.555 0 6.836 1.914 8.633 5 1.797 3.125 1.797 6.914 0 10A9.93 9.93 0 0 1 12 22m4.727-9.414h-.04c.391.39.391.976 0 1.328-.351.39-.937.39-1.328 0l-3.398-3.398-3.399 3.398a.856.856 0 0 1-1.289 0c-.39-.351-.39-.937 0-1.328l4.063-4.063c.351-.351.937-.351 1.328 0z"/>
</svg>
